src/actions/16/show-bounding-box.svg

<svg width="16" height="16" version="1.1" viewBox="0 0 16 16" xmlns="http://www.w3.org/2000/svg">
 <path d="m3 2v1h1v-1h-1zm2 0v1h1v-1h-1zm2 0v1h1v-1h-1zm2 0v1h1v-1h-1zm2 0v1h1v-1h-1zm-8 2v1h1v-1h-1zm8 0v1h1v-1h-1zm-8 2v1h1v-1h-1zm8 0v1h1v-1h-1zm-8 2v1h1v-1h-1zm8 0v1h1v-1h-1zm-8 2v1h1v-1h-1zm8 0v1h1v-1h-1zm-8 2v1h1v-1h-1zm8 0v1h1v-1h-1zm-8 2v1h1v-1h-1zm2 0v1h1v-1h-1zm2 0v1h1v-1h-1zm2 0v1h1v-1h-1zm2 0v1h1v-1h-1z" fill="#363636"/>
</svg>

<svg xmlns="http://www.w3.org/2000/svg" width="16" height="16">
    <path fill="#050505" fill-opacity=".7" d="M3 2v1h1V2H3zm2 0v1h1V2H5zm2 0v1h1V2H7zm2 0v1h1V2H9zm2 0v1h1V2h-1zM3 4v1h1V4H3zm8 0v1h1V4h-1zM3 6v1h1V6H3zm8 0v1h1V6h-1zM3 8v1h1V8H3zm8 0v1h1V8h-1zm-8 2v1h1v-1H3zm8 0v1h1v-1h-1zm-8 2v1h1v-1H3zm8 0v1h1v-1h-1zm-8 2v1h1v-1H3zm2 0v1h1v-1H5zm2 0v1h1v-1H7zm2 0v1h1v-1H9zm2 0v1h1v-1h-1z"/>
</svg>
